icons/svg/seamark_big/small_craft_facility_shield2.svg

<?xml version="1.0" encoding="UTF-8" standalone="no"?>
<svg
   xmlns:dc="http://purl.org/dc/elements/1.1/"
   xmlns:cc="http://creativecommons.org/ns#"
   xmlns:rdf="http://www.w3.org/1999/02/22-rdf-syntax-ns#"
   xmlns:svg="http://www.w3.org/2000/svg"
   xmlns="http://www.w3.org/2000/svg"
   xmlns:sodipodi="http://sodipodi.sourceforge.net/DTD/sodipodi-0.dtd"
   xmlns:inkscape="http://www.inkscape.org/namespaces/inkscape"
   width="64"
   height="64"
   id="svg2"
   version="1.1"
   inkscape:version="0.48.4 r9939"
   sodipodi:docname="small_craft_facility_shield2.svg">
  <defs
     id="defs13">
    <inkscape:path-effect
       effect="gears"
       id="path-effect3774"
       is_visible="true"
       teeth="6"
       phi="-1.2" />
    <inkscape:path-effect
       effect="bend_path"
       id="path-effect3772"
       is_visible="false"
       bendpath="m 95.790098,316.51174 c 144.429032,-206.42506 223.313032,-11.7428 339.548092,0"
       prop_scale="1.19"
       scale_y_rel="false"
       vertical="false"
       bendpath-nodetypes="cc" />
  </defs>
  <sodipodi:namedview
     pagecolor="#ffffff"
     bordercolor="#666666"
     borderopacity="1"
     objecttolerance="10"
     gridtolerance="10"
     guidetolerance="10"
     inkscape:pageopacity="0"
     inkscape:pageshadow="2"
     inkscape:window-width="1920"
     inkscape:window-height="1004"
     id="namedview11"
     showgrid="true"
     inkscape:zoom="9.2070178"
     inkscape:cx="2.70314"
     inkscape:cy="33.858052"
     inkscape:window-x="1680"
     inkscape:window-y="0"
     inkscape:window-maximized="1"
     inkscape:current-layer="svg2"
     inkscape:snap-bbox="true"
     inkscape:snap-bbox-midpoints="true"
     inkscape:snap-bbox-edge-midpoints="true"
     inkscape:bbox-nodes="true"
     inkscape:bbox-paths="true">
    <inkscape:grid
       type="xygrid"
       id="grid3040" />
  </sodipodi:namedview>
  <metadata
     id="metadata2975">image/svg+xmlen<rdf:RDF>
  <cc:Work
     rdf:about="">
    <dc:format>image/svg+xml</dc:format>
    <dc:type
       rdf:resource="http://purl.org/dc/dcmitype/StillImage" />
    <dc:title />
  </cc:Work>
</rdf:RDF>
</metadata>
  <rect
     style="fill:none"
     y="12.633193"
     x="15.035497"
     width="29.431395"
     height="29.431395"
     id="rect3" />
  <rect
     style="fill:none"
     y="12.633193"
     x="15.035497"
     width="29.431395"
     height="29.431395"
     id="rect3-8" />
  <path
     style="color:#000000;fill:#930093;fill-opacity:1;fill-rule:nonzero;stroke:none;stroke-width:10;marker:none;visibility:visible;display:inline;overflow:visible;enable-background:accumulate"
     d="m 45.064151,21.311827 c -1.384368,0 -2.498114,1.150455 -2.498114,2.580442 l 0,16.215463 c 0,1.429986 1.113755,2.580441 2.498114,2.580441 l 16.437735,0 C 62.886254,42.688173 64,41.537718 64,40.107732 l 0,-16.215463 c 0,-1.429987 -1.113755,-2.580442 -2.498114,-2.580442 l -16.437735,0 z m 0.213205,1.186926 16.01132,0 c 0.842612,0 1.520759,0.681498 1.520759,1.527995 l 0,15.946504 c 0,0.846497 -0.678147,1.527996 -1.520759,1.527996 l -16.01132,0 c -0.842596,0 -1.520759,-0.681499 -1.520759,-1.527996 l 0,-15.946504 c 0,-0.846497 0.678147,-1.527995 1.520759,-1.527995 z"
     id="rect3761"
     inkscape:connector-curvature="0" />
  <rect
     style="opacity:0.6;color:#000000;fill:#fefefe;fill-opacity:1;fill-rule:nonzero;stroke:none;stroke-width:10;marker:none;visibility:visible;display:inline;overflow:visible;enable-background:accumulate"
     id="rect3761-3"
     width="19.052839"
     height="19.002102"
     x="43.756592"
     y="22.498947"
     ry="1.5279715"
     rx="1.5209466" />
</svg>

<svg width="64" height="64" viewBox="0 0 64 64" fill="none" xmlns="http://www.w3.org/2000/svg">
<path d="M45.064 21.312C43.6797 21.312 42.5659 22.4625 42.5659 23.8925V40.1079C42.5659 41.5379 43.6797 42.6884 45.064 42.6884H61.5018C62.8861 42.6884 63.9999 41.5379 63.9999 40.1079V23.8925C63.9999 22.4625 62.8861 21.312 61.5018 21.312H45.064V21.312ZM45.2772 22.4989H61.2886C62.1312 22.4989 62.8093 23.1804 62.8093 24.0269V39.9734C62.8093 40.8199 62.1312 41.5014 61.2886 41.5014H45.2772C44.4346 41.5014 43.7565 40.8199 43.7565 39.9734V24.0269C43.7565 23.1804 44.4346 22.4989 45.2772 22.4989V22.4989Z" fill="#930093"/>
<path opacity="0.6" d="M61.2887 22.499H45.2778C44.4378 22.499 43.7568 23.1831 43.7568 24.027V39.9732C43.7568 40.817 44.4378 41.5011 45.2778 41.5011H61.2887C62.1287 41.5011 62.8097 40.817 62.8097 39.9732V24.027C62.8097 23.1831 62.1287 22.499 61.2887 22.499Z" fill="#FEFEFE"/>
</svg>
